icons/brochure.svg

<?xml version="1.0" encoding="UTF-8"?><svg id="uuid-516c06a3-2432-449b-addf-ba7a386e4a18" xmlns="http://www.w3.org/2000/svg" viewBox="0 0 50 50"><path d="M15.73,28.92v4.39c0,.28,.22,.5,.5,.5v-5.39c-.28,0-.5,.22-.5,.5Z" fill="none"/><g><path d="M48.67,4.08c-.13-.09-.31-.11-.46-.06l-14.97,5.6L16.41,4.01s-.08-.02-.13-.02c-.01,0-.02,0-.03,0h0c-.06,0-.12,.01-.17,.03L.94,9.68c-.2,.07-.33,.26-.33,.47V45.07c0,.17,.08,.32,.22,.41,.08,.06,.18,.09,.28,.09,.06,0,.12-.01,.18-.03l14.96-5.8,16.83,5.81c.05,.02,.1,.02,.16,.02h0c.06,0,.12,0,.18-.03l15.13-5.87c.19-.07,.32-.26,.32-.47V4.49c0-.16-.08-.32-.21-.41Zm-.79,34.78l-14.13,5.48v-1.27c0-.28-.22-.5-.5-.5s-.5,.22-.5,.5v1.3l-16-5.53v-1.64c0-.28-.22-.5-.5-.5s-.5,.22-.5,.5v1.66L1.61,44.34V10.49L15.75,5.21v1.28c0,.28,.22,.5,.5,.5s.5-.22,.5-.5v-1.31l16,5.32v1.64c0,.28,.22,.5,.5,.5s.5-.22,.5-.5v-1.65l14.13-5.28V38.86Z"/><path d="M33.25,16.06c-.28,0-.5,.22-.5,.5v4.42c0,.28,.22,.5,.5,.5s.5-.22,.5-.5v-4.42c0-.28-.22-.5-.5-.5Z"/><path d="M33.25,24.9c-.28,0-.5,.22-.5,.5v4.42c0,.28,.22,.5,.5,.5s.5-.22,.5-.5v-4.42c0-.28-.22-.5-.5-.5Z"/><path d="M16.25,19.15c-.28,0-.5,.22-.5,.5v4.39c0,.28,.22,.5,.5,.5s.5-.22,.5-.5v-4.39c0-.28-.22-.5-.5-.5Z"/><path d="M16.25,10.38c-.28,0-.5,.22-.5,.5v4.39c0,.28,.22,.5,.5,.5s.5-.22,.5-.5v-4.39c0-.28-.22-.5-.5-.5Z"/><path d="M33.23,34.23c-.28,0-.5,.22-.5,.5v4.42c0,.28,.22,.5,.5,.5s.5-.22,.5-.5v-4.42c0-.28-.22-.5-.5-.5Z"/><path d="M16.23,28.42c-.28,0-.5,.22-.5,.5v4.39c0,.28,.22,.5,.5,.5s.5-.22,.5-.5v-4.39c0-.28-.22-.5-.5-.5Z"/></g></svg>

<svg id="becac39f-0a5b-43c7-a1d6-2392c0997f44" data-name="ICONS" xmlns="http://www.w3.org/2000/svg" viewBox="0 0 50 50"><path d="M15.73,28.92V33.3a.5.5,0,0,0,.5.5V28.42A.5.5,0,0,0,15.73,28.92Z" fill="none"/><path d="M48.67,4.08A.48.48,0,0,0,48.21,4l-15,5.6L16.41,4l-.13,0h0l-.17,0L.94,9.68a.5.5,0,0,0-.33.47V45.07a.5.5,0,0,0,.22.41.49.49,0,0,0,.28.09.58.58,0,0,0,.19,0l15-5.81,16.83,5.81a.4.4,0,0,0,.15,0h0a.57.57,0,0,0,.18,0l15.14-5.87a.51.51,0,0,0,.32-.47V4.49A.48.48,0,0,0,48.67,4.08Zm-.78,34.78L33.75,44.34V43.07a.5.5,0,1,0-1,0v1.3l-16-5.53V37.2a.5.5,0,0,0-1,0v1.66L1.61,44.34V10.49L15.75,5.21V6.49a.5.5,0,1,0,1,0V5.18l16,5.33v1.64a.5.5,0,0,0,1,0V10.49L47.89,5.21Z"/><path d="M33.25,16.06a.5.5,0,0,0-.5.5V21a.5.5,0,1,0,1,0V16.56A.5.5,0,0,0,33.25,16.06Z"/><path d="M33.25,24.9a.5.5,0,0,0-.5.5v4.42a.5.5,0,0,0,1,0V25.4A.5.5,0,0,0,33.25,24.9Z"/><path d="M16.25,19.15a.5.5,0,0,0-.5.5V24a.5.5,0,0,0,1,0V19.65A.5.5,0,0,0,16.25,19.15Z"/><path d="M16.25,10.38a.5.5,0,0,0-.5.5v4.38a.5.5,0,0,0,1,0V10.88A.5.5,0,0,0,16.25,10.38Z"/><path d="M33.23,34.23a.5.5,0,0,0-.5.5v4.41a.5.5,0,0,0,.5.5.5.5,0,0,0,.5-.5V34.73A.5.5,0,0,0,33.23,34.23Z"/><path d="M16.23,28.42a.5.5,0,0,0-.5.5V33.3a.5.5,0,0,0,.5.5.5.5,0,0,0,.5-.5V28.92A.5.5,0,0,0,16.23,28.42Z"/></svg>
